svgs/solid/face-thermometer.svg

<svg xmlns="http://www.w3.org/2000/svg" viewBox="0 0 576 512"><!--! Font Awesome Pro 6.2.0 by @fontawesome - https://fontawesome.com License - https://fontawesome.com/license (Commercial License) Copyright 2022 Fonticons, Inc. --><path d="M544 256c0 141.4-114.6 256-256 256S32 397.4 32 256S146.6 0 288 0C400 0 495.2 72 530 172.2c-14-4.1-29.8-.7-41 10.2l-150.8 146c-14.9-5.2-31.6-8.4-50.2-8.4c-55.1 0-93.8 27.9-116.1 53.5c-5.8 6.7-5.1 16.8 1.6 22.6s16.8 5.1 22.6-1.6C214 373.8 244.6 352 288 352s74 21.8 91.9 42.5c5.8 6.7 15.9 7.4 22.6 1.6c5.2-4.5 6.8-11.6 4.5-17.7l9.4-9-24.8-24.8c-4.7-4.7-4.7-12.3 0-17s12.3-4.7 17 0l25.1 25.1 15.3-14.8-25.4-25.4c-4.7-4.7-4.7-12.3 0-17s12.3-4.7 17 0l25.7 25.7 15.3-14.8-26-26c-4.7-4.7-4.7-12.3 0-17s12.3-4.7 17 0l26.3 26.3L514.1 275l-26.6-26.6c-4.7-4.7-4.7-12.3 0-17s12.3-4.7 17 0l26.9 26.9 12.5-12c.1 3.2 .2 6.4 .2 9.6zM240.4 208c0-17.7-14.3-32-32-32s-32 14.3-32 32s14.3 32 32 32s32-14.3 32-32zm128 32c17.7 0 32-14.3 32-32s-14.3-32-32-32s-32 14.3-32 32s14.3 32 32 32z"/></svg>

<svg xmlns="http://www.w3.org/2000/svg" viewBox="0 0 576 512"><!--! Font Awesome Pro 6.1.2 by @fontawesome - https://fontawesome.com License - https://fontawesome.com/license (Commercial License) Copyright 2022 Fonticons, Inc. --><path d="M544 256C544 397.4 429.4 512 288 512C146.6 512 32 397.4 32 256C32 114.6 146.6 0 288 0C400 0 495.2 71.96 529.1 172.2C515.9 168.1 500.2 171.5 488.1 182.4L338.2 328.4C323.3 323.2 306.6 320 288 320C232.9 320 194.2 347.9 171.9 373.5C166.1 380.2 166.8 390.3 173.5 396.1C180.2 401.9 190.3 401.2 196.1 394.5C214 373.8 244.6 352 288 352C331.4 352 361.1 373.8 379.9 394.5C385.7 401.2 395.8 401.9 402.5 396.1C407.7 391.6 409.3 384.4 406.1 378.4L416.3 369.3L391.5 344.5C386.8 339.8 386.8 332.2 391.5 327.5C396.2 322.8 403.8 322.8 408.5 327.5L433.6 352.6L448.9 337.9L423.5 312.5C418.8 307.8 418.8 300.2 423.5 295.5C428.2 290.8 435.8 290.8 440.5 295.5L466.2 321.2L481.5 306.5L455.5 280.5C450.8 275.8 450.8 268.2 455.5 263.5C460.2 258.8 467.8 258.8 472.5 263.5L498.8 289.8L514.1 275L487.5 248.5C482.8 243.8 482.8 236.2 487.5 231.5C492.2 226.8 499.8 226.8 504.5 231.5L531.4 258.4L543.8 246.4C543.9 249.6 544 252.8 544 255.1L544 256zM208.4 176C190.7 176 176.4 190.3 176.4 208C176.4 225.7 190.7 240 208.4 240C226 240 240.4 225.7 240.4 208C240.4 190.3 226 176 208.4 176zM368.4 240C386 240 400.4 225.7 400.4 208C400.4 190.3 386 176 368.4 176C350.7 176 336.4 190.3 336.4 208C336.4 225.7 350.7 240 368.4 240z"/></svg>
